!!!!SEGMENT: pl-sa--13-a-i-13_janisch--partya-pour-le-clavecin.krn
!!!cenid: 17xx:682
!!!COM: Janisch
!!!COM-rismid: pe30035788
!!!CDT:
!!!CNT:
!!!OTL: Partya pour le clavecin
!!!PDT:
!!!AGN: Secular
!!!SMS-siglum: PL-SA
!!!SMS-shelfmark: 13/A I 13
!!!SMS-shelfwork: W
!!!SMS-variant:
!!!SMS-altvar:
!!!NIFC-rismid: 1001065741
!!!URL-scan: http://bc.bdsandomierz.pl/dlibra/publication/1279/edition/1247/content
!!!ONB-nifc:
!!!AIN: 1 empty
!!!key:
**kern	**kern	**dynam
*part1	*part1	*part1
*staff2	*staff1	*
*Iempty	*Iempty	*
*I"Clavecin	*	*
*I'Cl-lo	*	*
*clefF4	*clefG2	*
*k[b-]	*k[b-]	*
*F:	*F:	*
*M4/4	*M4/4	*
*met(c)	*met(c)	*
!	!LO:TX:a:B:t=Andante	!
!	!	!LO:DY:b
8r	8r	p
=1	=1	=1
*2\right	*	*
2FF\ 2F	8A/L 8f	.
.	16.A/L 16.f	.
.	32A/JJk 32f	.
.	8A/L 8f	.
.	8B-/J 8g	.
2FF\ 2F	8c/L 8a	.
.	8B-/ 8g	.
.	8A/J 8f	.
.	8r	.
=2	=2	=2
*2\right	*	*
!	!LO:TX:a:t=problem:4 kolejne takty niewidoczne	!
2FF\ 2F	1r	.
2FF\ 2F	.	.
=3	=3	=3
2FF\ 2F	1r	.
2FF\ 2F	.	.
=4	=4	=4
2FF\ 2F	1r	.
2FF\ 2F	.	.
=5	=5	=5
!	!LO:TX:a:t=problem:takt niewidoczny	!
1r	1r	.
!!LO:LB:g=original
=6	=6	=6
*^	*	*
4r	2ryy	8.a\L 8.cc	.
*	*	*Xtuplet	*
.	.	48b-\LL 48dd	.
.	.	48a\ 48cc	.
.	.	48g\JJJ 48b-	.
8r	.	8f;/ 8a	.
8c\	.	8a/	p
8d/L	2F\	8b-T/L	.
8c/	.	8a/	.
8d/	.	8b-/	.
8B-/J	.	8g/J	.
=7	=7	=7	=7
8B-/L	2F\	8gT/L	.
8A/J	.	8f/J	.
4A/	.	4f/	.
2C\ 2c	2ryy	4g\ 4ee	.
.	.	8b-\L 8gg	.
.	.	8a\J 8ff	.
*v	*v	*	*
=8	=8	=8
2C\ 2c	4a\ 4ff	.
.	8cc\L 8aa	.
.	8b-\J 8gg	.
2C\ 2c	4b-\ 4gg	.
.	8dd\L 8bb-	.
.	8cc\J 8aa	.
=9	=9	=9
2C\ 2c	8cc\L 8aa	.
.	8b-\ 8gg	.
.	8b-\ 8gg	.
.	8a\J 8ff	.
2C\ 2c	8a\L 8ff	.
.	8g\J 8ee	.
.	4g\ 4ee	.
=10	=10	=10
*	*^	*
1r	16r	8a\L	.
.	32cc/LLL	.	.
.	32ff/JJJ	.	.
.	16r	8f\J	.
.	32cc/LLL	.	.
.	32a/JJJ	.	.
.	16r	8g\L	.
.	32b-/LLL	.	.
.	32gg/JJJ	.	.
.	16r	8c\J	.
.	32b-/LLL	.	.
.	32g/JJJ	.	.
.	16r	8f\L	.
.	32a/LLL	.	.
.	32cc/JJJ	.	.
!	!LO:TX:a:t=problem:3 ostatnie miary drugiej warstwy przechodzą na drugą pięciolinię	!	!
.	16r	8A<\J	.
.	32a/LLL	.	.
.	32f/JJJ	.	.
.	16r	8B-<\L	.
.	32g/LLL	.	.
.	32b-/JJJ	.	.
.	16r	8c<\J	.
.	32g/LLL	.	.
.	32e/JJJ	.	.
*	*v	*v	*
!!LO:LB:g=original
=11	=11	=11
!LO:TX:a:t=problem:mixed beam	!	!
!	!LO:TX:a:B:t=Allegro	!
!	!LO:TX:a:B:t=Allegro	!
8FF/L	4f/	.
8F\	.	.
8FF/	8b-\L 8dd	.
8F\J	8a\J 8cc	.
*rep	*	*
!LO:TX:a:t=problem:mixed beam	!	!
8FF/L	8a\L 8cc	.
8F\	8g\J 8b-	.
8FF/	4f\ 4a	.
8F\J	.	.
*Xrep	*	*
=12	=12	=12
8CC/L	8g\L 8b-	.
8C/	8b-\ 8dd	.
8CC/	8a\ 8cc	.
8C/J	8g\J 8b-	.
!LO:TX:a:t=problem:mixed beam	!	!
8FF/L	8g/L 8b-	.
8F\	8f/J 8a	.
8FF/	4f/ 4a	.
8F\J	.	.
=13	=13	=13
!LO:TX:a:t=problem:mixed beam	!	!
8FF/L	4f/	.
8F\	.	.
8FF/	8b-\L 8dd	.
8F\J	8a\J 8cc	.
*rep	*	*
!LO:TX:a:t=problem:mixed beam	!	!
8FF/L	8a\L 8cc	.
8F\	8g\J 8b-	.
8FF/	4f\ 4a	.
8F\J	.	.
*Xrep	*	*
=14	=14	=14
8CC/L	8g/L 8b-	.
8C/	8g/ 8b-	.
8CC/	8f/ 8a	.
8C/J	8e/J 8g	.
4FF/	4f/ 4a	.
4r	4r	.
=15	=15	=15
2CC/ 2C	8g/L 8b-	.
.	8g/ 8b-	.
.	8f/ 8a	.
.	8e/J 8g	.
2CC/ 2C	8g/L 8b-	.
.	8f/ 8a	.
.	8e/ 8g	.
.	8e/J 8g	.
=16	=16	=16
2FF/ 2F	8f/L 8a	.
.	8g/ 8b-	.
.	8a/ 8cc	.
.	8b-/J 8dd	.
8r	4a/ 4cc	.
8FF/L	.	.
8AA/	4r	.
8FF/J	.	.
=17	=17	=17
2CC/ 2C	8g/L 8b-	.
.	8f/ 8a	.
.	8e/ 8g	.
.	8e/J 8g	.
2CC/ 2C	8g/L 8b-	.
.	8f/ 8a	.
.	8e/ 8g	.
.	8e/J 8g	.
=18	=18	=18
2FF\ 2F	8f\L 8a	.
.	8b-\ 8dd	.
.	8a\ 8cc	.
.	8g\J 8b-	.
8r	4a\ 4cc	.
8FF/L	.	.
8AA/	4r	.
8C/J	.	.
!!LO:LB:g=original
=19	=19	=19
!LO:TX:a:t=problem:mixed beam	!	!
8FF/L	4f/	.
8F\	.	.
8FF/	8b-\L 8dd	.
8F\J	8a\J 8cc	.
*rep	*	*
!LO:TX:a:t=problem:mixed beam	!	!
8FF/L	8a\L 8cc	.
8F\	8g\J 8b-	.
8FF/	4f/ 4a	.
8F\J	.	.
*Xrep	*	*
=20	=20	=20
8CC/L	8g\L 8b-	.
8C/	8b-\ 8dd	.
8CC/	8a\ 8cc	.
8C/J	8g\J 8b-	.
!LO:TX:a:t=problem:mixed beam	!	!
8FF/L	8g\L 8b-	.
8F\	8f\J 8a	.
8FF/	4f/ 4a	.
8F\J	.	.
=21	=21	=21
!LO:TX:a:t=problem:mixed beam	!	!
8FF/L	4f/	.
8F\	.	.
8FF/	8b-\L 8dd	.
8F\J	8a\J 8cc	.
*rep	*	*
!LO:TX:a:t=problem:mixed beam	!	!
8FF/L	8a\L 8cc	.
8F\	8g\J 8b-	.
8FF/	4f/ 4a	.
8F\J	.	.
*Xrep	*	*
=22	=22	=22
!	!LO:TX:a:t=problem:5  kolenych taktów niewidocznych	!
1r	8g/L 8b-	.
.	8g/ 8b-	.
.	8f/ 8a	.
.	8e/J 8g	.
.	4f/ 4a	.
.	4r	.
=23	=23	=23
1r	8dd\L	.
.	8dd\	.
.	8cc#X\	.
.	8a\J	.
.	8dd\L	.
.	8ff\	.
.	8cc#\	.
.	8a\J	.
=24	=24	=24
1r	8dd\L	.
.	8ff\ 8aa	.
.	8ee\ 8gg	.
.	8dd\J 8ff	.
.	4cc#X\ 4ee	.
.	4r	.
=25	=25	=25
2r	8dd\L	.
.	8dd\	.
.	8cc#X\	.
.	8a\J	.
4D\	8dd\L	.
.	8ff\	.
4A\	8cc#\	.
.	8a\J	.
=26	=26	=26
1r	8dd\L	.
.	8ff\	.
.	8ee\	.
.	8cc#X\J	.
.	4dd\	.
.	4r	.
!!LO:PB:g=original
=27	=27	=27
4FF\ 4F	8ff\L	.
.	8ccn\	.
4FF\ 4F	8a\	.
.	8cc\J	.
4C\ 4c	8a\L 8cc	.
.	8b-\J 8dd	.
4C\ 4c	4g\ 4b-	.
=28	=28	=28
4C\ 4c	8gg\L	.
.	8b-\	.
4C\ 4c	8g\	.
.	8b-\J	.
4F\	8g/L 8b-	.
.	8f/J 8a	.
4F\	4f/ 4a	.
=29	=29	=29
*^	*	*
*clefG1	*	*	*
4a/	2c\	8dd\L	.
.	.	8ff\J	.
4b-/	.	16cc#X\LL	.
.	.	16bn\	.
.	.	16cc#\	.
.	.	16a\JJ	.
4a/	2c\	8dd\L	.
.	.	8ff\J	.
4b-/	.	8cc#X\L	.
.	.	8a\J	.
=30	=30	=30	=30
4a/	2c\	8dd\L	.
.	.	8ff\J	.
4b-/	.	16cc\LL	.
.	.	16b-\	.
.	.	16cc\	.
.	.	16a\JJ	.
4a/	2c\	8dd\L	.
.	.	8ff\	.
4b-/	.	8cc\	.
.	.	8a\J	.
*v	*v	*	*
=31	=31	=31
8a/	8dd\L	.
*clefF4	*	*
8F\L	8ff\J	.
8G\	16ff\LL	.
.	16ee\	.
8A\J	16dd\	.
.	16cc\JJ	.
4D\	4dd\	.
4r	8r	.
.	16r	.
.	16ff\ 16aa	.
=32	=32	=32
4c#X;\	4gg;\ 4bb-	.
8d\	8ff\ 8aa	.
8r	8r	.
4A;\	4ee;\ 4gg	.
8B-\	8dd\ 8ff	.
8r	8r	.
=33	=33	=33
*^	*	*
!	!	!	!LO:DY:t=p.
!	!	!LO:TX:b:B:t=adagio	!LO:DY:b=2
4G\	4ryy	4g/ 4b-	p
4A\	4ryy	4f/ 4a	.
4G/	4AA\	4c#X/	.
4F/	4D\	4d/	.
*v	*v	*	*
!!LO:LB:g=original
=34||	=34||	=34||
*M3/4	*M3/4	*
8r	8cc\	.
=35	=35	=35
*tremolo	*	*
!LO:TX:a:t=problem:mixed beam	!	!
8FF/L	4a\ 4ff	.
8F\	.	.
8FF/	4a\ 4cc	.
8F\	.	.
8FF/	4a\ 4cc	.
8F\J	.	.
=36	=36	=36
*rep	*	*
!LO:TX:a:t=problem:mixed beam	!	!
8FF/L	8.a/L 8.cc	.
8F\	.	.
.	16g/Jk 16b-	.
8FF/	4f/ 4a	.
8F\	.	.
8FF/	8r	.
8F\J	8a\ 8cc	.
*Xrep	*	*
=37	=37	=37
*rep	*	*
!LO:TX:a:t=problem:mixed beam	!	!
8FF/L	16a\LL 16cc	.
.	16b-\ 16dd	.
8F\	16a\ 16cc	.
.	16g\JJ 16b-	.
8FF/	4f/ 4a	.
8F\	.	.
8FF/	8r	.
8F\J	8cc\ 8aa	.
*Xrep	*	*
*Xtremolo	*	*
=38	=38	=38
4F\	8cc\L 8aa	.
.	8b-\ 8gg	.
4C\	8b-\ 8gg	.
.	8a\ 8ff	.
4FF/	8a\ 8ff	.
.	8cc\J 8aa	.
=39	=39	=39
4F\	8cc\L 8aa	.
.	8b-\ 8gg	.
4C\	8b-\ 8gg	.
.	8a\ 8ff	.
4FF/	8a\ 8ff	.
.	8f\J 8a	.
=40	=40	=40
4C/	16g/LL 16b-	.
.	16f/ 16a	.
.	16e/ 16g	.
.	16f/JJ 16a	.
8r	8e/L 8g	.
8C/L	8e/J 8g	.
8CC/	4e/ 4g	.
8C/J	.	.
=41	=41	=41
*	*^	*
*	*	*2\right	*
*	*	*tremolo	*
2.ryy	8.ff/L	8f\L 8a	.
.	.	8f\ 8a	.
.	16aa/Jk	.	.
.	4cc/	8f\ 8a	.
.	.	8f\ 8a	.
.	16r	8f\ 8a	.
.	16ff/LL	.	.
.	16aa/	8f\J 8a	.
.	16ccc/JJ	.	.
*	*	*Xtremolo	*
=42	=42	=42	=42
2.ryy	4ccc\	8c\L	.
.	.	8c\	.
.	4gg\ 4bb-	8e\	.
.	.	8e\	.
.	4ff\ 4aa	8f\	.
.	.	8f\J	.
*	*v	*v	*
!!LO:LB:g=original
=43	=43	=43
!LO:TX:a:t=problem:mixed beam	!	!
8B-\L	8dd\L	.
8B-\	16gg\L	.
.	16bb-\JJ	.
8c\	4a\ 4ff	.
8c\	.	.
8C/	4g\ 4ee	.
8C/J	.	.
=44	=44	=44
8F\L	2a\ 2ff	.
8C\	.	.
8AA\	.	.
8C\J	.	.
4FF/	4r	.
=45	=45	=45
8B-\L	8dd\L	.
8F\	16bb-\L	.
.	16dd\JJ	.
8A\	8cc\L	.
8F\	16aa\L	.
.	16cc\JJ	.
8G\	8b-\L	.
8C\J	16gg\L	.
.	16b-\JJ	.
=46	=46	=46
8F\L	16a\LL	.
.	16ff\	.
8G\	16ee\	.
.	16gg\JJ	.
!	!LO:TX:a:t=problem:mixed beam	!
8A\	8ff\L	.
8B-\	16g/L	.
.	16a/JJ	.
!LO:TX:a:t=problem:mixed beam	!	!
8c\	8f/L 8a	.
8C/J	8e/J 8g	.
=47	=47	=47
4F\	4a\ 4cc	.
4FF\ 4F	8a\L 8ff	.
.	8f\ 8a	.
4FF\ 4F	8f\ 8a	.
.	8a\J 8cc	.
=48	=48	=48
4C\	4g/ 4b-	.
4FF\ 4F	4f/ 4a	.
4r	4r	.
=49	=49	=49
.	32qqcc#X/LLL	.
.	32qqdd/	.
.	32qqee/JJJ	.
*	*^	*
2.ryy	4dd/	8d\L	.
.	.	8a\	.
.	16r	8f\	.
.	16dd/LL	.	.
.	16cc#/	8a\	.
.	16dd/JJ	.	.
.	16ff/LL	8d\	.
.	16dd/	.	.
.	16cc#/	8a\J	.
.	16dd/JJ	.	.
=50	=50	=50	=50
.	32qqdd#X/LLL	.	.
.	32qqee/	.	.
.	32qqff/JJJ	.	.
2.ryy	4ee/	8c#X\L	.
.	.	8a\	.
.	16r	8e\	.
.	16ee/LL	.	.
.	16dd#/	8a\	.
.	16ee/JJ	.	.
.	16gg/LL	8c#\	.
.	16ee/	.	.
.	16dd#/	8a\J	.
.	16ee/JJ	.	.
=51	=51	=51	=51
2.ryy	16ff/LL	8d\L	.
.	16aa/	.	.
.	16ddd/	8f\	.
.	16aa/JJ	.	.
.	16gg/LL	8e\	.
.	16aa/	.	.
.	16ff/	8d\	.
.	16gg/JJ	.	.
.	16ee/LL	8c#X\	.
.	16ff/	.	.
.	16gg/	8e\J	.
.	16ee/JJ	.	.
!!LO:LB:g=original
=52	=52	=52	=52
2.ryy	16ff/LL	8d\L	.
.	16aa/	.	.
.	16ddd/	8f\	.
.	16aa/JJ	.	.
.	16gg/LL	8e\	.
.	16aa/	.	.
.	16ff/	8d\	.
.	16gg/JJ	.	.
.	16ee/LL	8c#X\	.
.	16ff/	.	.
.	16gg/	8e\J	.
.	16ee/JJ	.	.
*	*v	*v	*
=53	=53	=53
*tremolo	*	*
8d\L 8f	16ff\LL	.
.	16dd\	.
8d\ 8f	16cc#X\	.
.	16dd\JJ	.
8d\ 8f	16aa\LL	.
.	16dd\	.
8d\J 8f	16cc#\	.
.	16dd\JJ	.
*Xtremolo	*	*
4d\ 4f	8.ddd\L	.
.	16cccn\Jk	.
=54	=54	=54
.	16qqaa/	.
!LO:TX:a:t=problem:mixed beam	!	!
8G\L	8bb-X\L	.
8G\	16aa\L	.
.	16gg\JJ	.
8A\	4ff\	.
8A\	.	.
8AA/	4ee\	.
8AA/J	.	.
=55	=55	=55
!	!	!LO:DY:b
8D\L	8dd/L	p
8f\	8a/	.
8f\	8a/	.
8f\J	8a/J	.
8e\L	16g/LL	.
.	16b-X/	.
8c#X\J	16e/	.
.	16g/JJ	.
=56	=56	=56
8d\L	8f/L	.
8A\	8f/	.
8A\	8f/	.
8A\J	8f/J	.
8G\L	16e/LL	.
.	16g/	.
8A\J	16c#X/	.
.	16e/JJ	.
=57	=57	=57
4D\	8.d/L	.
.	16d/Jk	.
4D\	4d/	.
!	!LO:TX:b:B:t=Volti allegro	!
4r	4r	.
!!LO:PB:g=original
=58||	=58||	=58||
*M4/4	*M4/4	*
*met(c)	*met(c)	*
!	!LO:TX:a:B:t=Allegro	!
4F\	8r	.
.	8f/	.
4C\	8r	.
.	8a\	.
4A\	8r	.
.	8a/	.
4F\	8r	.
.	8f/	.
=59	=59	=59
4c\	8r	.
.	8cc\	.
4A\	8r	.
.	8a\	.
4f\	4ff\	.
4r	8r	.
.	8ff\ 8aa	.
=60	=60	=60
!LO:TX:a:t=1	!	!
1r	8ee\L 8gg	.
.	8dd\ 8ff	.
.	8cc\ 8ee	.
.	8dd\J 8ff	.
.	8cc\L 8ee	.
.	8b-\ 8dd	.
.	8a\ 8cc	.
.	8b-\J 8dd	.
=61	=61	=61
4F\	8a/L 8cc	.
.	8g/ 8b-	.
4A\	8f/ 8a	.
.	8f/J 8a	.
4B-\	8g/L	.
.	8b-/	.
4c\	8e/	.
.	8g/J	.
=62	=62	=62
4F\	8r	.
.	8f/	.
4C\	8r	.
.	8a\	.
4A\	8r	.
.	8a/	.
4F\	8r	.
.	8f/	.
=63	=63	=63
4c\	8r	.
.	8cc\	.
4A\	8r	.
.	8a\	.
4f\	4ff\	.
4r	8r	.
.	8ccc\	.
=64	=64	=64
4F\ 4A	8ccc\L	.
.	8aa\	.
4r	8ff\	.
.	8ff\J	.
4F\ 4A	8aa\L	.
.	8ff\	.
4r	8cc\	.
.	8a\J	.
!!LO:LB:g=original
=65	=65	=65
4F\	8ff\L	.
.	8cc\	.
4A\	8a\	.
.	8a\J	.
4B-\	8dd\L	.
.	8b-\	.
4c\	8g\	.
.	8e\J	.
=66	=66	=66
16A\LL	4f/	.
16c\	.	.
16A\	.	.
16c\JJ	.	.
*rep	*	*
16A\LL	8f/L	.
16c\	.	.
16A\	8f/J	.
16c\JJ	.	.
*Xrep	*	*
16A\LL	8gT/L	.
16c\	.	.
16A\	8f/	.
16c\JJ	.	.
16A\LL	8f/	.
16c\	.	.
16A\	8f/J	.
16c\JJ	.	.
=67	=67	=67
16F\LL	4a/	.
16c\	.	.
16F\	.	.
16c\JJ	.	.
*rep	*	*
16F\LL	8a/L	.
16c\	.	.
16F\	8a/J	.
16c\JJ	.	.
*Xrep	*	*
16G\LL	8b-T/L	.
16c\	.	.
16F\	8a/	.
16c\JJ	.	.
16F\LL	8a/	.
16c\	.	.
16F\	8a/J	.
16c\JJ	.	.
=68	=68	=68
16C\LL	4a\ 4ee	.
16c\	.	.
16Bn\	.	.
16c\JJ	.	.
*rep	*	*
16C\LL	4a\ 4ff	.
16c\	.	.
16B\	.	.
16c\JJ	.	.
*Xrep	*	*
*rep	*	*
16C\LL	4a\ 4ee	.
16c\	.	.
16B\	.	.
16c\JJ	.	.
*Xrep	*	*
*rep	*	*
16C\LL	4a\ 4ff	.
16c\	.	.
16B\	.	.
16c\JJ	.	.
*Xrep	*	*
=69	=69	=69
8C\L	8g/L 8ee	.
8c\	8e/ 8cc	.
8G\	8e/ 8cc	.
8E\J	8e/J 8cc	.
4C/	4e/ 4cc	.
8r	8r	.
8r	8ee\ 8gg	p
=70	=70	=70
4C\ 4c	8ee\L 8gg	.
.	8cc\ 8ee	.
4r	8cc\ 8ee	.
.	8cc\J 8ee	.
4GG\ 4G	8dd\L 8ff	.
.	8cc\ 8ee	.
4r	8cc\ 8ee	.
.	8cc\J 8ee	.
=71	=71	=71
4C\ 4c	8g/L 8ee	.
.	8e/ 8cc	.
4r	8e/ 8cc	.
.	8e/J 8cc	.
4GG\ 4G	8f/L 8dd	.
.	8d/ 8b-	.
4r	8d/J 8b-	.
.	8ee\ 8gg	.
!!LO:LB:g=original
=72	=72	=72
4C\ 4c	8ee\L 8gg	.
.	8cc\ 8ee	.
4r	8cc\ 8ee	.
.	8cc\J 8ee	.
4GG\ 4G	8dd\L 8ff	.
.	8bn\ 8dd	.
4r	8b\ 8dd	.
.	8b\J 8dd	.
=73	=73	=73
4C\ 4c	8g/L 8ee	.
.	8e/ 8cc	.
4r	8e/ 8cc	.
.	8e/J 8cc	.
4GG\ 4G	8f/L 8dd	.
.	8d/ 8b-	.
4r	8d/J 8b-	.
.	8gg\	f
=74	=74	=74
16E\LL	8.gg\L	.
16c\	.	.
16G\	.	.
16c\JJ	16ccc\Jk	.
*rep	*	*
16E\LL	8gg\L	.
16c\	.	.
16G\	8gg\J	.
16c\JJ	.	.
*Xrep	*	*
*rep	*	*
16E\LL	8.gg\L	.
16c\	.	.
16G\	.	.
16c\JJ	16ee\Jk	.
*Xrep	*	*
*rep	*	*
16E\LL	4gg\	.
16c\	.	.
16G\	.	.
16c\JJ	.	.
=75	=75	=75
16F\LL	8.aa\L	.
16c\	.	.
16A\	.	.
16c\JJ	16ccc\Jk	.
*rep	*	*
16F\LL	8aa\L	.
16c\	.	.
16A\	8aa\J	.
16c\JJ	.	.
*Xrep	*	*
*rep	*	*
16F\LL	8.aa\L	.
16c\	.	.
16A\	.	.
16c\JJ	16ff\Jk	.
*Xrep	*	*
*rep	*	*
16F\LL	4aa\	.
16c\	.	.
16A\	.	.
16c\JJ	.	.
*Xrep	*	*
=76	=76	=76
*tremolo	*	*
8G\L	8gg\L	.
8G\	8ccc\	.
8G\	8cc\ 8ee	.
8G\J	8ee\J 8gg	.
8G\L	8ee\L 8gg	.
8G\	8dd\ 8ff	.
8G\	8cc\ 8ee	.
8G\J	8bn\J 8dd	.
*Xtremolo	*	*
=77	=77	=77
16E\LL	4cc\	.
16c\	.	.
16E\	.	.
16c\JJ	.	.
16F\LL	8dd\L	.
16c\	.	.
16G\	8ee\J	.
16c\JJ	.	.
16A\LL	4ff\	.
16c\	.	.
16A\	.	.
16c\JJ	.	.
16G\LL	8ee\L	.
16c\	.	.
16F\	8dd\J	.
16c\JJ	.	.
=78	=78	=78
16E\LL	8cc\L	.
16c\	.	.
16E\	8cc\	.
16c\JJ	.	.
16F\LL	8dd\	.
16c\	.	.
16G\	8ee\J	.
16c\JJ	.	.
16A\LL	4ff\	.
16c\	.	.
16A\	.	.
16c\JJ	.	.
16G\LL	8ee\L	.
16c\	.	.
16F\	8dd\J	.
16c\JJ	.	.
!!LO:LB:g=original
=79	=79	=79
!	!	!LO:DY:t=f
4C\ 4c	8cc\ 8ccc	f
.	8r	.
4GG\ 4G	8g\ 8gg	.
.	8r	.
4EE\ 4E	8e\ 8ee	.
.	8r	.
4CC\ 4C	8c\ 8cc	.
.	8r	.
=80	=80	=80
!	!	!LO:DY:t=p
2FF\ 2F	8r	p
.	8ff\L 8aa	.
.	8ff\ 8aa	.
.	8ff\J 8aa	.
4G\	8ee\L 8gg	.
.	8dd\ 8ff	.
4GG/	8cc\ 8ee	.
.	8b-\J 8dd	.
=81	=81	=81
4C\ 4c	16r	f
.	16cc\LL	.
.	16ccc\	.
.	16cc\JJ	.
4GG\ 4G	16r	.
.	16g\LL	.
.	16gg\	.
.	16g\JJ	.
4EE\ 4E	16r	.
.	16e/LL	.
.	16ee/	.
.	16e/JJ	.
4CC\ 4C	16r	.
.	16c/LL	.
.	16cc/	.
.	16c/JJ	.
=82	=82	=82
!	!	!LO:DY:t=p
2FF\ 2F	8r	p
.	8ff\L 8aa	.
.	8ff\ 8aa	.
.	8ff\J 8aa	.
4G\	8ee\L 8gg	.
.	8dd\ 8ff	.
4GG/	8cc\ 8ee	.
.	8b-\J 8dd	.
=83	=83	=83
*tremolo	*	*
!LO:TX:a:t=problem:mixed beam	!	!
8C/L	4cc\	.
8c\	.	.
8C/	4g\ 4b-X	.
8c\J	.	.
*rep	*	*
!LO:TX:a:t=problem:mixed beam	!	!
8C/L	4f\ 4a	.
8c\	.	.
8C/	4e\ 4g	.
8c\J	.	.
*Xrep	*	*
=84	=84	=84
!LO:TX:a:t=problem:mixed beam	!	!
8C/L	4f/ 4a	.
8c\	.	.
8C/	4d/ 4bn	.
8c\J	.	.
!LO:TX:a:t=problem:mixed beam	!	!
*rep	*	*
8C/L	4e/ 4cc	.
8c\	.	.
8C/	4g/ 4b-X	.
8c\J	.	.
*Xtremolo	*	*
*Xrep	*	*
!!LO:PB:g=original
=85	=85	=85
*Xtremolo	*	*
8C\L	4f/ 4a	.
8c\	.	.
8C\	4d/ 4bn	.
8c\J	.	.
2C;<\ 2c	8.d;</L 8.b	.
.	16e/Jk 16cc	.
.	4e;</ 4cc	.
=86||	=86||	=86||
*k[e-d-b-a-]	*k[e-d-b-a-]	*
*M4/4	*M4/4	*
*met(c)	*met(c)	*
!	!LO:TX:a:B:t=adagio	!
4FF;\ 4F	4a-;\ 4ff	.
4r	8r	.
.	8a-\ 8cc	.
2r	8b-\L 8dd-	.
.	8a-\J 8cc	.
.	4a-;\ 4cc	.
=87	=87	=87
2CC/ 2C	4g/ 4b-	.
.	8f/L 8a-	.
.	8en/J 8g	.
4FF\ 4F	8a-/L	.
.	8f/J	.
8r;	8r	.
8r	8cc;\	.
=88	=88	=88
2C\ 2c	8.en/L 8.g	.
.	16e/K 16g	.
.	8e/ 8g	.
.	8f/J 8a-	.
2C\ 2c	8d-/L 8g	.
.	8a-/ 8cc	.
.	8g/ 8b-	.
.	8f/J 8a-	.
=89	=89	=89
2C\ 2c	8e-/L 8g	.
.	8f/ 8a-	.
.	8e-/ 8g	.
.	8f/J 8a-	.
2C\ 2c	8f/L 8a-	.
.	8e-/J 8g	.
.	4e-/ 4g	.
=90	=90	=90
2C\ 2c	4b-\ 4gg	.
.	8a-\L 8ff	.
.	8g\J 8een	.
2C\ 2c	8a-\L 8ff	.
.	8g\J 8ee	.
.	4g\ 4ee	.
*clefG1	*	*
=91	=91	=91
8a-/L	4cc\	.
8cc/	.	.
8a-/	16r	.
.	16ff\LL	.
8cc/J	16aa-\	.
.	16cc\JJ	.
8gn/L	4b-\	.
8b-/	.	.
8g/	16r	.
.	16een\LL	.
8b-/J	16gg\	.
.	16b-\JJ	.
!!LO:LB:g=original
=92	=92	=92
8a-\L	16a-/LL	.
.	16cc/	.
*clefF4	*	*
8A-\	16f/	.
.	16a-/JJ	.
8B-\	16g/LL	.
.	16b-/	.
8c\J	16en/	.
.	16g/JJ	.
16A-\LL	4f/	.
16c\	.	.
16A-\	.	.
16c\JJ	.	.
16B-\LL	8en/L	.
16c\	.	.
16B-\	8e/J	.
16c\JJ	.	.
=93	=93	=93
16A-\LL	4f/	.
16c\	.	.
16A-\	.	.
16c\JJ	.	.
16B-\LL	8e/L	.
16c\	.	.
16B-\	8e/J	.
16c\JJ	.	.
4A-\	8f/L	.
.	8a-/ 8cc	.
4C\ 4c	8g/ 8b-	.
.	8en/J 8g	.
=94	=94	=94
8F\L	2f/	.
8C\J	.	.
4FF/	.	.
2r	2r	.
=95||	=95||	=95||
*k[b-]	*k[b-]	*
*M2/4	*M2/4	*
*tremolo	*	*
!	!LO:TX:a:B:t=Moderato	!
!	!LO:TX:a:t=problem:mixed beam	!
8F\L 8A 8c	8ff\L	.
8F\ 8A 8c	(32f/LL	.
.	32e/	.
.	32f/	.
.	32g/JJJ)	.
8F\ 8A 8c	8f/L	.
8F\J 8A 8c	8f/J	.
=96	=96	=96
8F\L 8A 8c	8f/L	.
8F\ 8A 8c	8f/	.
8F\ 8A 8c	8a/	.
8F\J 8A 8c	8cc/J	.
=97	=97	=97
8F\L 8A 8c	4a/	.
8F\ 8A 8c	.	.
8F\ 8A 8c	4f/	.
8F\J 8A 8c	.	.
=98	=98	=98
!	!LO:TX:a:t=problem:mixed beam	!
8F\L 8B- 8d	8ff\L	.
8F\ 8B- 8d	32f/LL	.
.	32e/	.
.	32f/	.
.	32g/JJJ	.
8F\ 8B- 8d	8f/L	.
8F\J 8B- 8d	8f/J	.
=99	=99	=99
8F\L 8B- 8d	8f/L	.
8F\ 8B- 8d	8f/	.
8F\ 8B- 8d	8a/	.
8F\J 8B- 8d	8dd/J	.
!!LO:LB:g=original
=100	=100	=100
8F\L 8B- 8d	4b-/	.
8F\ 8B- 8d	.	.
8F\ 8B- 8d	4f/	.
8F\J 8B- 8d	.	.
=101	=101	=101
!	!LO:TX:a:t=problem:mixed beam	!
8F\L 8A 8c	8ff\L	.
8F\ 8A 8c	32f/LL	.
.	32e/	.
.	32f/	.
.	32g/JJJ	.
8F\ 8A 8c	8f/L	.
8F\J 8A 8c	8f/J	.
=102	=102	=102
8F\L 8A 8c	8f/L	.
8F\ 8A 8c	8f/	.
8F\ 8A 8c	8a/	.
8F\J 8A 8c	8cc/J	.
=103	=103	=103
8F\L 8A 8c	4a/	.
8F\ 8A 8c	.	.
8F\ 8A 8c	8f/L	.
8F\J 8A 8c	8cc/J	.
*Xtremolo	*	*
=104	=104	=104
8B-\L	8b-/L	.
8A\	8a/	.
8G\	8g/	.
8F\J	8f/J	.
=105	=105	=105
!LO:TX:a:t=problem:mixed beam	!LO:TX:a:t=problem:mixed beam	!
8c\L	8cc\L	.
8C/	8c/	.
8C/	8c/	.
8C/J	8c/J	.
=106	=106	=106
4C/	4c/	.
4r	4r	.
=107	=107	=107
*	*^	*
4ryy	4ee/ 4gg	8c\L 8e	.
.	.	8g\	.
4C/	4ryy	8c\ 8e	.
.	.	8g\J	.
=108	=108	=108	=108
*	*rep	*rep	*
8r	4ee/ 4gg	8c\L 8e	.
8G/L	.	8g\	.
8E/	4ryy	8c\ 8e	.
8G/J	.	8g\J	.
*	*Xrep	*Xrep	*
=109	=109	=109	=109
*	*rep	*rep	*
4E/	4ee/ 4gg	8c\L 8e	.
.	.	8g\	.
4C\ 4A	8ryy	8c\J 8e	.
*	*Xrep	*Xrep	*
.	8gg/	8g\yy	.
=110	=110	=110	=110
4ryy	4ff/ 4aa	8c\L 8f	.
.	.	8a\	.
4C/	4ryy	8c\ 8f	.
.	.	8a\J	.
=111	=111	=111	=111
*	*rep	*rep	*
8r	4ff/ 4aa	8c\L 8f	.
8A/L	.	8a\	.
8F/	4ryy	8c\ 8f	.
8A/J	.	8a\J	.
*	*Xrep	*Xrep	*
=112	=112	=112	=112
*	*rep	*rep	*
4F/	4ff/ 4aa	8c\L 8f	.
.	.	8a\	.
4C/	4ryy	8c\ 8f	.
.	.	8a\J	.
*	*Xrep	*Xrep	*
*	*v	*v	*
!!LO:LB:g=original
=113	=113	=113
4e\	8gg\L	.
.	8ccc\J	.
4c\	8r	.
.	8ee\	.
=114	=114	=114
4d\	8ff\L	.
.	8ddd\J	.
4G\	8r	.
.	8dd\ 8ff	.
=115	=115	=115
4c\	8cc\L 8ee	.
.	8ee\ 8gg	.
4F\	8dd\ 8ff	.
.	8cc\J 8ee	.
=116	=116	=116
4G\	4bn\ 4dd	.
4r	4r	.
=117	=117	=117
*tremolo	*	*
8G\L 8B-	16dd\LL	.
.	16b-\	.
8G\ 8B-	16a\	.
.	16g\JJ	.
8G\ 8B-	16f#X/LL	.
.	16g/	.
8G\J 8B-	16f#/	.
.	16g/JJ	.
=118	=118	=118
8G\L	8g/L	.
32G\LL	(32g/LL	.
32A\	32a/	.
32B-\	32b-/	.
32c\JJJ	32cc/JJJ)	.
8d\L	8dd\L	.
32d\LL	32dd\LL	.
32c#X\	32cc#X\	.
32d\	32dd\	.
32e\JJJ	32ee\JJJ	.
=119	=119	=119
4f\	4ffn\	.
4r	4r	.
=120	=120	=120
8C\L 8E	16gg\LL	.
.	16ee\	.
8C\ 8E	16dd\	.
.	16ccn\JJ	.
8C\ 8E	16b-\LL	.
.	16cc\	.
8C\J 8E	16b-\	.
.	16cc\JJ	.
*Xtremolo	*	*
=121	=121	=121
8C\L	8cc\L	.
32C\LL	32cc\LL	.
32D\	32dd\	.
32E\	32ee\	.
32F\JJJ	32ff\JJJ	.
8G\L	8gg\L	.
16G\L	16gg\L	.
32A\L	32aa\L	.
32B-\JJJ	32bb-\JJJ	.
=122	=122	=122
4c\	4ccc\	.
!	!LO:TX:b:t=V. Andante	!
4r	4r	.
!!LO:PB:g=original
=123||	=123||	=123||
*M2/4	*M2/4	*
!	!LO:TX:a:B:t=andante	!LO:DY:t=p
2GG/ 2G	4.dd\ 4.ff	p
.	8ee\ 8gg	.
=124	=124	=124
4C\ 4c	4cc\ 4ee	.
4r	4r	.
=125	=125	=125
4F\	4a/ 4ff	.
4G\	8g/L 8ee	.
.	8f/J 8dd	.
=126	=126	=126
4C\ 4c	4e/ 4cc	.
4r	4r	.
=127	=127	=127
2G\ 2d	8.bn\L	.
.	16dd\Jk	.
.	8b\L	.
.	8b\J	.
=128	=128	=128
2G\ 2c	8.cc\L	.
.	16ee\Jk	.
.	8cc\L	.
.	8cc\J	.
=129	=129	=129
2G\ 2B-	8.dd\L	.
.	16ff\Jk	.
.	8dd\L	.
.	8dd\J	.
=130	=130	=130
*^	*	*
4c/	2G\	8.ee\L	.
.	.	16gg\Jk	.
4B-/	.	4dd\	.
*v	*v	*	*
=131	=131	=131
2F\	8ff\L 8aa	.
.	8gg\ 8bb-	.
.	8aa\ 8ccc	.
.	8ff\J 8aa	.
=132	=132	=132
2C\ 2c	8gg\L	.
.	8ee\	.
.	8cc\	.
.	8cc\J	.
=133	=133	=133
2F\	8ff\L 8aa	.
.	8gg\ 8bb-	.
.	8aa\ 8ccc	.
.	8ff\J 8aa	.
=134	=134	=134
4C\ 4c	4ee\ 4gg	.
4r	4r	.
=135	=135	=135
2FF\ 2F	8dd\L	.
.	8ee\	.
.	8ff\	.
.	8dd\J	.
=136	=136	=136
4FF\ 4F	8a\L	.
.	8cc\	.
4GG\ 4G	8b-\	.
.	8dd\J	.
=137	=137	=137
2C/	8dd\L	.
.	8cc\J	.
.	4cc\	.
!!LO:LB:g=original
=138||	=138||	=138||
*M3/8	*M3/8	*
!	!LO:TX:a:B:t=Andante	!
16r	16a\ 16cc	.
=139	=139	=139
8F\L	32a\LLL 32cc	.
.	32b-\ 32dd	.
.	32a\ 32cc	.
.	32g\JJJ 32b-	.
8F\	16f/LL 16a	.
.	16f/ 16a	.
8F\J	16f/ 16a	.
.	16g/JJ 16b-	.
=140	=140	=140
8.F\L	16.a/LL 16.cc	.
.	32g/JK 32b-	.
.	8f/J 8a	.
*Xtuplet	*	*
48F\	.	.
48E\	.	.
48F\J	.	.
8FF/	16r	.
.	16g\ 16b-	.
=141	=141	=141
8C/L	32g/LLL 32b-	.
.	32a/ 32cc	.
.	32g/ 32b-	.
.	32f/JJJ 32a	.
8C/	16e/LL 16g	.
.	16e/ 16g	.
8C/J	16e/ 16g	.
.	16f/JJ 16a	.
=142	=142	=142
8.C/L	16.g/LL 16.b-	.
.	32f/JK 32a	.
.	8e/J 8g	.
48C/	.	.
48BBn/	.	.
48C/J	.	.
8EE\ 8C	8r	.
=143	=143	=143
16A\LL	8ff\L	.
16c\	.	.
16G\	8ee\	.
16c\	.	.
16A\	8ff\J	.
16c\JJ	.	.
=144	=144	=144
16E\LL	8gg\L	.
16c\	.	.
16C\	16.ggT\L	.
16c\	.	.
.	64aa\LL	.
.	64bb-\JJJ	.
16F\	8aa\J	.
16c\JJ	.	.
=145	=145	=145
16A\LL	32r	.
.	32ff\LLL	.
16c\	32ee\	.
.	32ff\JJJ	.
16B-\	32r	.
.	32ee\LLL	.
16c\	32gg\	.
.	32ee\JJJ	.
16A\	32r	.
.	32ff\LLL	.
16c\JJ	32aa\	.
.	32ff\JJJ	.
!!LO:LB:g=original
=146	=146	=146
16E\LL	32r	.
.	32gg\LLL	.
16c\	32ff#X\	.
.	32gg\JJJ	.
16C\	32r	.
.	32ee\LLL	.
16c\	32gg\	.
.	32bb-\JJJ	.
16F\	8aa\	.
16c\JJ	.	.
=147	=147	=147
!LO:TX:a:t=problem:mixed beam	!	!
8B-\L	32r	.
.	32gg\LLL	.
.	32bb-\	.
.	32ddd\JJJ	.
8c\	8ccc\L	.
8C/J	8g\J 8ee	.
=148	=148	=148
!LO:TX:a:t=problem:mixed beam	!	!
8F\L	8a\L 8ff	.
8FF/J	8a\J 8ff	.
8r	8r	.
=149	=149	=149
8C/	16.g/LL 16.b-	.
.	32f/JK 32a	.
32r	8e/J 8g	.
32C\LLL	.	.
32E\	.	.
32G\JJJ	.	.
32c\LLL	8r	.
32G\	.	.
32E\	.	.
32C\JJJ	.	.
=150	=150	=150
8F\	16.a/LL 16.cc	.
.	32g/JK 32b-	.
32r	8f/J 8a	.
32FF/LLL	.	.
32AA/	.	.
32C/JJJ	.	.
32F/LLL	8r	.
32C/	.	.
32AA/	.	.
32FF/JJJ	.	.
=151	=151	=151
!LO:TX:a:t=problem:mixed beam	!	!
16FF/LL	8dd\L 8ff	.
16F\	.	.
16FF/	8cc\ 8ee	.
16F\	.	.
16FF/	8b-\J 8dd	.
16F\JJ	.	.
=152	=152	=152
!LO:TX:a:t=problem:mixed beam	!	!
16FF/LL	16.a\LL 16.cc	.
16F\	.	.
.	64b-\LL 64dd	.
.	64a\JJJJ 64cc	.
16FF/	8g\L 8b-	.
16F\	.	.
16FF/	8f\J 8a	.
16F\JJ	.	.
=153	=153	=153
*tremolo	*	*
16B-\LL 16d	8.gg\L	.
16B-\ 16d	.	.
16B-\ 16d	.	.
16B-\ 16d	16aa\Jk	.
16B-\ 16d	32ccc\LLL	.
.	32bb-\	.
16B-\JJ 16d	32aa\	.
.	32gg\JJJ	.
*Xtremolo	*	*
=154	=154	=154
8C\L 8c	16a/LL 16ff	.
.	16g/J 16ee	.
8C\J 8c	8g/J 8ee	.
8r	8r	.
!!LO:LB:g=original
=155	=155	=155
8.F\L	32a/LLL	.
.	32b-/	.
.	32cc/	.
.	32a/JJJ	.
.	16f/LL	.
16B-\L 16d	16f/	.
16A\ 16c	16f/	.
16G\JJ 16B-	16f/JJ	.
=156	=156	=156
16A\LL	32f/LLL	.
.	32e/	.
16F\JJ	32f/	.
.	32a/JJJ	.
16E\LL	32g/LLL	.
.	32f/	.
16C\JJ	32g/	.
.	32b-/JJJ	.
!LO:TX:a:t=problem:mixed beam	!	!
16F\LL	16g/LL 16b-	.
16FF/JJ	16f/JJ 16a	.
=157	=157	=157
8.FF\L 8.F	32a/LLL	.
.	32b-/	.
.	32cc/	.
.	32a/JJJ	.
.	16f/LL	.
16B-\L 16d	32f/L	.
.	32ff/JJJ	.
16A\ 16c	32f/LLL	.
.	32ff/	.
16G\JJ 16B-	32f/	.
.	32ff/JJJ	.
=158	=158	=158
16A\LL	32ff\LLL	.
.	32cc\	.
16B-\JJ	32dd\	.
.	32b-\JJJ	.
!LO:TX:a:t=problem:mixed beam	!	!
16c\LL	8f/L 8a	.
16c\	.	.
16C/	8e/J 8g	.
16C/JJ	.	.
=159	=159	=159
!	!LO:TX:a:t=problem:mixed beam	!
8F\L	16.f/LL	.
.	32ff\JJk	.
8F\ 8A	16.dd\LL	.
.	32ff\JJk	.
8F\J 8A	16.dd\LL	.
.	32cc\JJk	.
=160	=160	=160
8GG\ 8G	16e/LL 16cc	.
.	16d/JJ 16bn	.
!	!LO:TX:b:t=Volti allegro	!
4GG\ 4G	4d/ 4b	.
!!LO:PB:g=original
=161||	=161||	=161||
*k[]	*k[]	*
*M4/4	*M4/4	*
*met(c)	*met(c)	*
!	!LO:TX:a:B:t=Allegro aſsai	!
8c\L	4r	p
8e\	.	.
8c\	8r	.
8e\J	8g/	.
*rep	*	*
8c\L	8cc/L	.
8e\	8g/J	.
8c\	4g/	.
8e\J	.	.
*Xrep	*	*
=162	=162	=162
8c\L	4r	.
8e\	.	.
8c\	8r	.
8e\J	8cc\	.
*rep	*	*
8c\L	8ee\L	.
8e\	8cc\J	.
8c\	4cc\	.
8e\J	.	.
*Xrep	*	*
=163	=163	=163
8c\L	4r	.
8e\	.	.
8c\	8r	.
8e\J	8ee\	.
*rep	*	*
8c\L	8gg\L	.
8e\	8ee\	.
8c\	8ee\	.
!	!	!LO:DY:b
8e\J	8gg\J	f
*Xrep	*	*
=164	=164	=164
8c\L	8ccc\L	.
8G\	8gg\	.
8c\	8ccc\	.
8G\J	8gg\J	.
8c\L	8ccc\L	.
8G\	8gg\	.
8E\	8ee\	.
8C\J	8cc\J	.
=165	=165	=165
4G\	4gg\	.
8.GG/L	8.g/L	.
16GG/Jk	16g/Jk	.
4GG/	4g/	.
4r	4r	.
=166	=166	=166
8c\L	4r	p
8e\	.	.
8c\	8r	.
8e\J	8g/	.
*rep	*	*
8c\L	8cc/L	.
8e\	8g/J	.
8c\	4g/	.
8e\J	.	.
*Xrep	*	*
=167	=167	=167
8c\L	4r	.
8e\	.	.
8c\	8r	.
8e\J	8cc\	.
*rep	*	*
8c\L	8ee\L	.
8e\	8cc\J	.
8c\	4cc\	.
8e\J	.	.
*Xrep	*	*
=168	=168	=168
8c\L	4r	.
8e\	.	.
8c\	8r	.
8e\J	8ee\	.
*rep	*	*
8c\L	8gg\L	.
8e\	8ee\	.
8c\	8ee\	.
8e\J	8gg\J	.
*Xrep	*	*
!!LO:LB:g=original
=169	=169	=169
4c\	8ee\L 8ccc	f
.	8ff\ 8aa	.
4F\	8ee\ 8gg	.
.	8dd\J 8ff	.
4G\	4cc\ 4ee	.
4GG/	4b\ 4dd	.
=170	=170	=170
16C\LL	2e/ 2cc	.
16c\	.	.
16B\	.	.
16c\JJ	.	.
*rep	*	*
16C\LL	.	.
16c\	.	.
16B\	.	.
16c\JJ	.	.
*Xrep	*	*
*rep	*	*
16C\LL	4f/ 4dd	.
16c\	.	.
16B\	.	.
16c\JJ	.	.
*Xrep	*	*
*rep	*	*
16C\LL	4g/ 4ee	.
16c\	.	.
16B\	.	.
16c\JJ	.	.
*Xrep	*	*
=171	=171	=171
16C\LL	4.a/ 4.ff	.
16c\	.	.
16B\	.	.
16c\JJ	.	.
*rep	*	*
16C\LL	.	.
16c\	.	.
16B\	8f/ 8dd	.
16c\JJ	.	.
*Xrep	*	*
*rep	*	*
16C\LL	4g/ 4ee	.
16c\	.	.
16B\	.	.
16c\JJ	.	.
*Xrep	*	*
*rep	*	*
16C\LL	4e/ 4cc	.
16c\	.	.
16B\	.	.
16c\JJ	.	.
*Xrep	*	*
=172	=172	=172
16C\LL	4.ff\ 4.aa	.
16c\	.	.
16B\	.	.
16c\JJ	.	.
*rep	*	*
16C\LL	.	.
16c\	.	.
16B\	8dd\ 8ff	.
16c\JJ	.	.
*Xrep	*	*
*rep	*	*
16C\LL	4ee\ 4gg	.
16c\	.	.
16B\	.	.
16c\JJ	.	.
*Xrep	*	*
*rep	*	*
16C\LL	4cc\ 4ee	.
16c\	.	.
16B\	.	.
16c\JJ	.	.
*Xrep	*	*
=173	=173	=173
16GG\LL	4dd\ 4bb	.
16G\	.	.
16F#X\	.	.
16G\JJ	.	.
*rep	*	*
16GG\LL	4ee\ 4ccc	.
16G\	.	.
16F#\	.	.
16G\JJ	.	.
*Xrep	*	*
*rep	*	*
16GG\LL	4dd\ 4bb	.
16G\	.	.
16F#\	.	.
16G\JJ	.	.
*Xrep	*	*
*rep	*	*
16GG\LL	4ee\ 4ccc	.
16G\	.	.
16F#\	.	.
16G\JJ	.	.
*Xrep	*	*
=174	=174	=174
4GG\ 4G	4dd\ 4bb	.
4r	4r	.
2r	2r	.
*clefG1	*	*
=175	=175	=175
*^	*	*
*	*tremolo	*	*
8dd/L	8b\L	16dd\LL	.
.	.	16cc#X\	.
8dd/	8b\	16dd\	.
.	.	16b\JJ	.
8dd/	8b\	16gg\LL	.
.	.	16ff\	.
8dd/J	8b\J	16gg\	.
.	.	16dd\JJ	.
*tremolo	*	*	*
8dd/L	8b\L	16bb\LL	.
.	.	16aa\	.
8dd/	8b\	16gg\	.
.	.	16ff#X\JJ	.
8dd/	8b\	16gg\LL	.
.	.	16ff#\	.
8dd/J	8b\J	16ee\	.
.	.	16dd\JJ	.
*v	*v	*	*
=176	=176	=176
8f/L 8a 8cc	16dd\LL	.
.	16ccn\	.
8f/ 8a 8cc	16b\	.
.	16cc\JJ	.
8f/ 8a 8cc	4cc\	.
8f/J 8a 8cc	.	.
!!LO:LB:g=original
8f/L 8a	16cc\LL	.
.	16b\	.
8f/ 8a	16cc\	.
.	16a\JJ	.
8f/ 8a	16ff#X\LL	.
.	16ee\	.
8f/J 8a	16ff#\	.
.	16dd\JJ	.
=177	=177	=177
8f/L 8a	16aa\LL	.
.	16bb\	.
8f/ 8a	16ccc\	.
.	16bb\JJ	.
8f/ 8a	16aa\LL	.
.	16gg\	.
8f/J 8a	16ff#X\	.
.	16ee\JJ	.
8f/L 8a	16dd\LL	.
.	16ee\	.
8f/ 8a	16ff#X\	.
.	16gg\JJ	.
8f/ 8a	16aa\LL	.
.	16ff#\	.
8f/J 8a	16dd\	.
.	16cc\JJ	.
=178	=178	=178
8f/L 8b	16cc\LL	.
.	16b\	.
8f/ 8b	16a#X\	.
.	16b\JJ	.
8f/ 8b	4b\	.
8f/J 8b	.	.
8d/L 8b	16gg\LL	.
.	16ff\	.
8d/ 8b	16gg\	.
.	16dd\JJ	.
8d/ 8b	16b\LL	.
.	16a#\	.
8d/J 8b	16b\	.
.	16g\JJ	.
=179	=179	=179
8e/L 8b	16ee\LL	.
.	16dd#X\	.
8e/ 8b	16ee\	.
.	16dd#\JJ	.
8e/ 8b	16ee\LL	.
.	16cc\	.
8e/J 8b	16b\	.
.	16an\JJ	.
8f/L	16b\LL	.
.	16g\	.
8f/	16b\	.
.	16dd#\JJ	.
8f/	16gg\LL	.
.	16dd#\	.
8f/J	16gg\	.
.	16bb\JJ	.
=180	=180	=180
8f/L	16ddd\LL	.
.	16bb\	.
8f/	16aa\	.
.	16gg\JJ	.
8f/	16ddd\LL	.
.	16bb\	.
8f/J	16aa\	.
.	16gg\JJ	.
8f/L	2aaT\	.
8f/	.	.
8f/	.	.
8f/J	.	.
=181	=181	=181
4B/	4gg\	.
4r	4r	.
4dd/	8ddT\L	.
.	8gg\J	.
4b/	4b\	.
!!LO:LB:g=original
=182	=182	=182
4cc/	8ccT\L	.
.	8ee\J	.
4f/	4a/	.
4b/	8bt\L	.
.	8dd\J	.
4d/	4g/	.
=183	=183	=183
4e/	8a/L	.
.	8cc/	.
4f/	8f#X/	.
.	8a/J	.
4B/	4g/	.
4r	4r	.
=184	=184	=184
*clefF4	*	*
16G\LL	16g/LL	f
16F#X\	16f#X/	.
16G\	16g/	.
16A\JJ	16a/JJ	.
4B-X\	4b-X/	.
16E\LL	16e/LL	.
16D\	16d/	.
16E\	16e/	.
16Fn\JJ	16fn/JJ	.
4G\	4g/	.
=185	=185	=185
16C#X/LL	16c#X/LL	.
16BBn/	16B/	.
16C#/	16c#/	.
16D/JJ	16d/JJ	.
4E\	4e/	.
*	*rep	*
2r	16A/LL 16c#	.
.	16A/ 16c#	.
.	16A/ 16c#	.
.	16A/JJ 16c#	.
*	*Xrep	*
*	*rep	*
.	16A/LL 16c#	.
.	16A/ 16c#	.
.	16A/ 16c#	.
.	16A/JJ 16c#	.
*	*Xrep	*
=186	=186	=186
!LO:TX:a:t=problem:mixed beam	!	!
8AA/L	8A/L	p
8A\	8f/ 8a	.
8AA/	8f/ 8a	.
8A\J	8f/J 8a	.
!LO:TX:a:t=problem:mixed beam	!	!
8AA/L	8f/L 8a	.
8A\	8g/J 8b-X	.
8AA/	4e/ 4g	.
8A\J	.	.
=187	=187	=187
!LO:TX:a:t=problem:mixed beam	!	!
8AA/L	8e/L 8g	.
8A\	8f/J 8a	.
8AA/	4d/ 4f	.
8A\J	.	.
!LO:TX:a:t=problem:mixed beam	!	!
8AA/L	8d/L 8f	.
8A\	8e/J 8g	.
8AA/	4c#X/ 4e	.
8A\J	.	.
=188	=188	=188
!LO:TX:a:t=problem:mixed beam	!	!
8AA/L	8d/L 8f	.
8A\	8c/ 8e	.
8AA/	8e/ 8g	.
8A\J	8d/J 8f	.
!LO:TX:a:t=problem:mixed beam	!	!
8AA/L	4c/ 4e	.
8A\	.	.
8AA/	4r	.
!LO:TX:a:t=V.	!	!
8A\J	.	.
!!LO:PB:g=original
=189	=189	=189
16r	2f/ 2a 2dd	.
16D\LL	.	.
16E\	.	.
16F\JJ	.	.
16G\LL	.	.
16A\	.	.
16B\	.	.
16c#X\JJ	.	.
8d\L	16r	.
.	16aa\LL	.
8D\ 8d	16ff\	.
.	16aa\JJ	.
8D\ 8d	16dd\LL	.
.	16ff\	.
8D\J 8d	16a\	.
.	16dd\JJ	.
=190	=190	=190
8D\L 8d	16f/LL	.
.	16a/	.
8D\ 8d	16dd/	.
.	16a/JJ	.
8D\ 8d	16dd/LL	.
.	16a/	.
8D\J 8d	16f/	.
.	16d/JJ	.
16r	2c#X/ 2e 2a	.
16AA\LL	.	.
16BBn\	.	.
16C#X\JJ	.	.
16D\LL	.	.
16E\	.	.
16F#X\	.	.
16G#X\JJ	.	.
=191	=191	=191
8A\L	16r	.
.	16ggn\LL	.
8AA\ 8A	16ee\	.
.	16gg\JJ	.
8AA\ 8A	16cc#X\LL	.
.	16ee\	.
8AA\J 8A	16a\	.
.	16cc#\JJ	.
8AA\L 8A	16g/LL	.
.	16a/	.
8AA\ 8A	16e/	.
.	16g/JJ	.
8AA\ 8A	16c#/LL	.
.	16e/	.
8AA\J 8A	16g/	.
.	16e/JJ	.
=192	=192	=192
16CC/LL	4d/ 4fn	.
16D/	.	.
16C#X/	.	.
16D/JJ	.	.
*rep	*	*
16CC/LL	4g/ 4b-X	.
16D/	.	.
16C#/	.	.
16D/JJ	.	.
*Xrep	*	*
*rep	*	*
16CC/LL	4f/ 4a	.
16D/	.	.
16C#/	.	.
16D/JJ	.	.
*Xrep	*	*
*rep	*	*
16CC/LL	4cc#X\ 4ee 4gg	.
16D/	.	.
16C#/	.	.
16D/JJ	.	.
*Xrep	*	*
=193	=193	=193
4DD/ 4GG 4D	4dd\ 4ff	.
4G\	8r	.
.	8b-X/	p
4A\	8r	.
.	16qqf/LL	.
.	16qqg/JJ	.
.	8a/	.
4AA/	8r	.
.	16qqc#X/LL	.
.	16qqd/JJ	.
.	8e/	.
!!LO:LB:g=original
=194	=194	=194
16DD/LL	4d/	f
16D/	.	.
16C#X/	.	.
16D/JJ	.	.
*rep	*	*
16DD/LL	4g/ 4b-X	.
16D/	.	.
16C#/	.	.
16D/JJ	.	.
*Xrep	*	*
*rep	*	*
16DD/LL	4f/ 4a	.
16D/	.	.
16C#/	.	.
16D/JJ	.	.
*Xrep	*	*
*rep	*	*
16DD/LL	4cc#X\ 4ee 4gg	.
16D/	.	.
16C#/	.	.
16D/JJ	.	.
*Xrep	*	*
=195	=195	=195
4DD/ 4D	4dd\ 4ff	.
4G\	16r	.
.	16b/LL	.
.	16g/	.
.	16e/JJ	.
4A\	16r	.
.	16a/LL	.
.	16f/	.
.	16d/JJ	.
4AA/	16r	.
.	16g/LL	.
.	16e/	.
.	16c#X/JJ	.
=196	=196	=196
4D/	4d/	.
4DD/ 4D	8.dd\L	.
.	16dd\Jk	.
4DD/ 4D	4d/	.
4r	4r	.
=197	=197	=197
8FF\L 8F	2A/ 2f	.
8FF\ 8F	.	.
8FF\ 8F	.	.
8FF\J 8F	.	.
8FF\L 8F	8r	.
8FF\ 8F	8f/L	.
8FF\ 8F	8f/	.
8FF\J 8F	8f/J	.
=198	=198	=198
8FF\L 8F	8.f/L	.
8FF\ 8F	.	.
.	16a/Jk	.
8FF\ 8F	4f/	.
8FF\J 8F	.	.
8FF\L 8F	8r	.
8FF\ 8F	8f/L 8a	.
8FF\ 8F	8f/ 8a	.
8FF\J 8F	8f/J 8a	.
=199	=199	=199
8FF\L 8F	8.f/L 8.a	.
8FF\ 8F	.	.
.	16cc/Jk	.
8FF\ 8F	4f/ 4a	.
8FF\J 8F	.	.
8FF\L 8F	8r	.
8FF\ 8F	8f/L 8a	.
8FF\ 8F	8f/ 8a	.
8FF\J 8F	8f/J 8a	.
=200	=200	=200
8FF\L 8F	8.a\L 8.ff	.
8FF\ 8F	.	.
.	16a\Jk 16cc	.
8FF\ 8F	4a\ 4cc	.
8FF\J 8F	.	.
8FF\L 8F	8a/L 8cc	.
8FF\ 8F	8f/J 8a	.
8FF\ 8F	4f/ 4a	.
8FF\J 8F	.	.
=201	=201	=201
2C\ 2c	8g/L 8b	p
.	8e/ 8g	.
.	8g/ 8b	.
.	8e/J 8g	.
2FF/ 2F	8f/L 8a	.
.	8a/ 8cc	.
.	8b/ 8dd	.
!	!LO:TX:a:t=bis	!
.	8f/J 8a	.
!!LO:LB:g=original
=202	=202	=202
2C\ 2c	8g/L 8b	.
.	8e/ 8g	.
.	8g/ 8b	.
.	8e/J 8g	.
2FF/ 2F	8.f/L 8.a	.
.	16f/Jk 16a	.
.	4f/ 4a	.
=203	=203	=203
!LO:TX:a:t=problem:repetycja tt.201-202	!	!
2C\yy 2cyy	8g/Lyy 8byy	p
.	8e/yy 8gyy	.
.	8g/yy 8byy	.
.	8e/Jyy 8gyy	.
2FF/yy 2Fyy	8f/Lyy 8ayy	.
.	8a/yy 8ccyy	.
.	8b/yy 8ddyy	.
.	8f/Jyy 8ayy	.
=204	=204	=204
2Cyy\ 2cyy	8g/Lyy 8byy	.
.	8e/yy 8gyy	.
.	8g/yy 8byy	.
.	8e/Jyy 8gyy	.
2FF/yy 2Fyy	8.f/Lyy 8.ayy	.
.	16f/Jkyy 16ayy	.
.	4f/yy 4ayy	.
=205	=205	=205
*Xtremolo	*	*
8B\L	4dd\	f
8B\	.	.
.	16qqccc/	.
8B\	8bb\L	.
8B\J	16aa\L	.
.	16gg\JJ	.
!LO:TX:a:t=problem:mixed beam	!	!
8c\L	4ff\	.
8c\	.	.
8C/	4g\ 4ee	.
8C/J	.	.
=206	=206	=206
*	*^	*
4F\	4ff\	4a\	.
8r	8r	8ryy	.
8ryy	8a/	8f\	.
2ryy	8b/L	8g\L	.
.	8a/	8f\	.
.	8b/	8g\	.
.	8cc/J	8a\J	.
=207	=207	=207	=207
2ryy	8dd/L	8b\L	.
.	8ee/	8cc\	.
.	8ff/	8dd\	.
.	8dd/J	8b\J	.
4ryy	4cc/	4a\	.
8r	8r	8ryy	.
8F\	8aa\	8ccc\	f
=208	=208	=208	=208
4c\	8ccc\L	8aa\L	.
.	8bb\	8gg\	.
4C/	8aa\	8ff\	.
.	8gg\J	8ee\J	.
4F\	4aa\	4ff\	.
4r	8r	8ryy	.
.	8a/	8f\	.
=209	=209	=209	=209
1ryy	8b/L	8g\L	.
.	8a/	8f\	.
.	8b/	8g\	.
.	8cc/J	8a\J	.
.	8dd/L	8b\L	.
.	8ee/	8cc\	.
.	8ff/	8dd\	.
.	8dd/J	8b\J	.
!!LO:LB:g=original
=210	=210	=210	=210
4ryy	4cc/	4a\	.
8r	8r	8ryy	.
8F\	8ff\	8a\	.
!LO:TX:a:t=problem:mixed beam	!	!	!
8c\L	4gg\	4b\	.
8c\	.	.	.
8C/	4ee\	4g\	.
8C/J	.	.	.
*	*v	*v	*
=211	=211	=211
*tremolo	*	*
!LO:TX:a:t=problem:mixed beam	!	!
8FF/L	4a\ 4ff	p
8F\	.	.
8FF/	4a\ 4cc	.
8F\J	.	.
!LO:TX:a:t=problem:mixed beam	!	!
8FF/L	4a\ 4cc	.
8F\	.	.
8FF/	4g\ 4b	.
8F\J	.	.
=212	=212	=212
!LO:TX:a:t=problem:mixed beam	!	!
8FF/L	4f/ 4a	.
8F\	.	.
8FF/	4c/ 4a	.
8F\J	.	.
!LO:TX:a:t=problem:mixed beam	!	!
8FF/L	4c/ 4a	.
8F\	.	.
8FF/	4B/ 4g	.
8F\J	.	.
=213	=213	=213
!LO:TX:a:t=problem:mixed beam	!	!
8FF/L	4A/ 4f	.
8F\	.	.
8FF/	4c/ 4a	.
8F\J	.	.
!LO:TX:a:t=problem:mixed beam	!	!
8FF/L	4A/ 4f	.
8F\	.	.
8FF/	4c/ 4a	.
8F\J	.	.
=214	=214	=214
!LO:TX:a:t=problem:mixed beam	!	!
8FF/L	4f/	.
8F\	.	.
8FF/	4f/	.
8F\J	.	.
*Xtremolo	*	*
!	!LO:TX:a:t=Final	!
4FF/	4f/	.
4r	4r	.
==	==	==
*-	*-	*-
!!!system-decoration: {(s1,s2)}
!!!RDF**kern: >= above
!!!RDF**kern: <= below
!!!RDF**dynam: p=p.
!!!RDF**dynam: f=fr.
!!!ENC: Anna Matuszewska
!!!END: 2020-08-10
